X:1
T:Sainte nuit
T:Sainte nuit
%%score { 1 | 2 }
L:1/8
M:3/4
K:C
V:1 treble nm="Piano" snm="Pno."
V:2 bass 
V:1
 [EG]3 A [EG]2 | [CE]6 | [EG]3 A [EG]2 | [CE]6 | [Fd]4 [Fd]2 | [FB]6 | [Ec]4 [Ec]2 | [EG]6 |: %8
 [CFA]4 [CFA]2 | [Fc]3 B [FA]2 | [EG]3 A [EG]2 | [CE]6 :| [Fd]4 [Fd]2 | [Bf]2 [Fd]2 [FB]2 | [Ec]6 | %15
 [Ge]6 | [Ec]2 [CG]2 [G,E]2 | [B,G]2 F2 [F,D]2 | [E,C]6 | [E,C]6 |] %20
V:2
!ped! C,2 E,2 G,2!ped-up! |!ped! C,2 E,2 G,2!ped-up! |!ped! C,2 E,2 G,2!ped-up! | %3
!ped! C,2 E,2 G,2!ped-up! |!ped! C,2 F,2 G,2!ped-up! |!ped! C,2 F,2 G,2!ped-up! | %6
!ped! C,2 E,2 G,2!ped-up! |!ped! C,2 E,2 G,2!ped-up! |:!ped! F,,2 C,2 F,2!ped-up! | %9
!ped! A,2 C4!ped-up! |!ped! C,,2 G,,2 C,2!ped-up! |!ped! E,6!ped-up! :|!ped! z2 C,2 F,2!ped-up! | %13
!ped! G,2 F,2 D,2!ped-up! |!ped! z2 C,2 E,2!ped-up! |!ped! [G,E]6!ped-up! |!ped! z6!ped-up! | %17
!ped! z6!ped-up! |!ped! z2 G,,2 E,,2!ped-up! | [E,,G,,]6 |] %20

